svg/car_wash.svg

<svg xmlns="http://www.w3.org/2000/svg" viewBox="0 0 24 24"><path d="m5 13 1.5-4.5h11L19 13m-1.5 5a1.5 1.5 0 0 1-1.5-1.5 1.5 1.5 0 0 1 1.5-1.5 1.5 1.5 0 0 1 1.5 1.5 1.5 1.5 0 0 1-1.5 1.5m-11 0A1.5 1.5 0 0 1 5 16.5 1.5 1.5 0 0 1 6.5 15 1.5 1.5 0 0 1 8 16.5 1.5 1.5 0 0 1 6.5 18M18.92 8c-.2-.58-.76-1-1.42-1h-11c-.66 0-1.22.42-1.42 1L3 14v8a1 1 0 0 0 1 1h1a1 1 0 0 0 1-1v-1h12v1a1 1 0 0 0 1 1h1a1 1 0 0 0 1-1v-8M7 5a1.5 1.5 0 0 0 1.5-1.5C8.5 2.5 7 .8 7 .8S5.5 2.5 5.5 3.5A1.5 1.5 0 0 0 7 5m5 0a1.5 1.5 0 0 0 1.5-1.5c0-1-1.5-2.7-1.5-2.7s-1.5 1.7-1.5 2.7A1.5 1.5 0 0 0 12 5m5 0a1.5 1.5 0 0 0 1.5-1.5c0-1-1.5-2.7-1.5-2.7s-1.5 1.7-1.5 2.7A1.5 1.5 0 0 0 17 5"/></svg>

<?xml version="1.0" encoding="UTF-8"?><!DOCTYPE svg PUBLIC "-//W3C//DTD SVG 1.1//EN" "http://www.w3.org/Graphics/SVG/1.1/DTD/svg11.dtd"><svg xmlns="http://www.w3.org/2000/svg" xmlns:xlink="http://www.w3.org/1999/xlink" version="1.1" id="mdi-car-wash" width="24" height="24" viewBox="0 0 24 24"><path d="M5,13L6.5,8.5H17.5L19,13M17.5,18A1.5,1.5 0 0,1 16,16.5A1.5,1.5 0 0,1 17.5,15A1.5,1.5 0 0,1 19,16.5A1.5,1.5 0 0,1 17.5,18M6.5,18A1.5,1.5 0 0,1 5,16.5A1.5,1.5 0 0,1 6.5,15A1.5,1.5 0 0,1 8,16.5A1.5,1.5 0 0,1 6.5,18M18.92,8C18.72,7.42 18.16,7 17.5,7H6.5C5.84,7 5.28,7.42 5.08,8L3,14V22A1,1 0 0,0 4,23H5A1,1 0 0,0 6,22V21H18V22A1,1 0 0,0 19,23H20A1,1 0 0,0 21,22V14M7,5A1.5,1.5 0 0,0 8.5,3.5C8.5,2.5 7,0.8 7,0.8C7,0.8 5.5,2.5 5.5,3.5A1.5,1.5 0 0,0 7,5M12,5A1.5,1.5 0 0,0 13.5,3.5C13.5,2.5 12,0.8 12,0.8C12,0.8 10.5,2.5 10.5,3.5A1.5,1.5 0 0,0 12,5M17,5A1.5,1.5 0 0,0 18.5,3.5C18.5,2.5 17,0.8 17,0.8C17,0.8 15.5,2.5 15.5,3.5A1.5,1.5 0 0,0 17,5Z" /></svg>
